X:1
T:Title
%%score 1 { 2 | 3 }
L:1/8
Q:1/4=78
M:6/8
K:Db
V:1 treble nm="Grand Piano, Soprano"
V:2 bass nm="Choir Pad, Be Silent to God, H D Winant"
V:3 bass 
V:1
 [DF][CE]D [CA]2 [EA]/[EA]/ | [Dd][Dc][DB] [CB] [CA]2 | [CE][CF][CG] [GB]2 [GA]/[GA]/ | %3
w: By~Margaret~Mae~Simpson * * * * *|||
 [GA][CE][C_F] [D=F]3 | [FA][DF][Fd] [Gc]2 G/[GA]/ | [GA][Ge][Gc] [Fd]2 [FA] | %6
w: |||
 [GB][Gc][_FB] [=FA]2 [FA]/[Fd]/ | [Gc][GA][Ge] [Fd]2 [DF] | [DF][DF][CG] [DA]2 [Fd]/[Fd]/ | %9
w: |||
 [Gc][GB][Gc] [Fd] [FA]2 | [GB][GB][GB] [DA][DF]D | [B,D][B,C][B,D] [CE]3 | %12
w: |||
 [DF][DE]D [CA]2 [DA]/[DA]/ | [DB][D=A][DB] [Dd] [F_A]2 | [Af][Ad][GB] [FA]2 [DF]/[FA]/ | %15
w: |||
 [GA][GB][Gc] [Fd]3- | [Fd]3 z3 |] %17
w: ||
V:2
 A,G,F, G,2 A,/A,/ | A,A,A, G, G,2 | A,A,A,[K:treble] C2 C/C/ | CA,[K:bass]A, A,3 | %4
 DA,A, A,2[K:treble] C/C/ | CCA, A,2 D | DDD C2 D/D/ | ECC F2[K:bass] A, | A,A,A, A,2 A,/A,/ | %9
 A,A,A, A,[K:treble] D2 | DDD A,[K:bass]A,F, | =G,G,G, A,3 | A,G,F, G,2 A,/A,/ | G,G,G, A, A,2 | %14
 DDD D2 A,/D/ | CDE D3- | D3 z3 |] %17
V:3
 D,D,D, E,2 G,/G,/ | F,F,F, E, E,2 | z3 A,2 A,/A,/ | .A,3 D,3 | D,D,D, z2 A,/A,/ | A, .A,2 D,2 D, | %6
 G,G,=G, A,2 A,/A,/ | A,A,A, D,2 D, | D,D,E, F,2 D,/D,/ | A,,A,,A,, D, D,2 | G,G,G, F,D,D, | %11
 B,,B,,B,, A,,3 | D,D,D, E,2 F,/F,/ | z3 F, D,2 | D,F,G, A,2 z/ A,/ | A,A,A, D,3- | D,3 z3 |] %17

